X:1
T:Taire et souffrir
T:Taire et souffrir
T:Thomas Crecquillon
T:Source : Unziesme Livre de Chansons à 4 parties---Paris---N.du Chemin---1554. Editor : André Vierendeels (28/12/14).
C:Thomas Crecquillon
%%score [ 1 2 3 4 ]
L:1/8
Q:1/4=75
M:2/2
K:C
V:1 treble nm="Superius" snm="S"
V:2 treble nm="Altus" snm="A"
V:3 treble-8 nm="Tenor 1" snm="T 1"
V:4 treble-8 nm="Tenor 2" snm="T 2"
V:1
 e8 |: d4 f4 | e8 | z8 | e4 e2 d2 | c2 B2 A4 | B2 d2 d2 d2 | e6 e2 | f6 e2 | d4 c4 | B3 A Bc d2- | %11
w: Tai-|r'et souf-|frir||ma dou- leur|ve- he- men-|te, qu'en lan- guis-|sant me|con- vient|en- du-||
w: Fait|que l'ar-|deur||si gran- de-|ment aug- men-|te, que ie ne|puis pour|moy rien|es- *||
 d2 c4 B2 |1 c4 e4 :|2 dc c4 B2 || c4 e4 | e2 f2 e4 | z2 c2 f2 e2 | c4 d4 | e6 d2 | e2 c2 d2 d2 | %20
w: |rer, fait|(du- * * *|rer: mais|co- gnois- sant|qu'ain- si ne|puis du-|rer, qu'ain|si ne puis du-|
w: * * pe-|rer _|(es)- * * pe-|rer, _|_ _ _|||||
[M:3/2] B8 B4 | A8 B4 | c8 e4 | d8 c4 | B4 A6 G2 |"^#" G8 F4 |[M:2/2] G2 g2 e2 g2- | gf ed cB AG | %28
w: rer, un|bien y|a en|mon mal-|heur, me _|sem- *|ble, c'est que par|_ _ _ _ _ _ _ _|
w: ||||||||
 F2 f4 ed | e6 e2 | c2 c2 d2 d2 | e4 z4 |: z2 e2 e2 d2 | c3 B/A/ G2 G2 | A2 c2 c2 B2 | A4 G4- | %36
w: |mort, ie|pour- ray ter- mi-|ner|tout le mal-|heur _ _ _ et|ma dou- leur en-|sem- ble,|
w: ||||||||
 G8- |[M:2/4] G8- |1[M:2/2] G8 :|2 G8- || G8 |] %41
w: _|||(ble).|_|
w: |||||
V:2
 c8 |: B4 AG AB | c4 B4 | z8 | c4 c2 B2 | A2 G4 F2 | G2 B2 B2 B2 | c8 | z2 c2 c3 B | A2 G4 F2 | %10
w: Tai-|r'et souf- * * *|* frir||ma dou- leur|ve- he- men-|te, qu'en lan- guis-|sant|me con- vient|en- * du-|
w: Fait|que l'ar- * * *|* deur||si gran- de-|ment aug- men-|te, que ie ne|puis|pour moy rien|es- * *|
 G2 D2 G2 A2- | A2 F2 G4 |1 E4 c4 :|2 A2 F2 G4 || z2 G2 G2 A2 | G2 F2 G2 G2 | A3 G AB cB | %17
w: ||rer, fait|(du)- * rer:|mais co- gnois-|sant qu'ain- si ne|puis _ _ _ _ _|
w: |* * pe-|rer, _|_ _ _||||
 AG c4 B2 | c2 G2 c2 B2 | G4 A4 |[M:3/2] G8 G4 | F8 G4 | A8 c4 | B4 A6 G2 | F6 E2 D4 | C4 D8 | %26
w: _ _ _ du-|rer, qu'ain- si ne|puis du-|rer, un|bien y|a en|mon mal- *|heur, me sem-||
w: |||||||||
[M:2/2] E4 G4- | G2 G2 A4- | A4 G4 | z2 G2 G2 G2 | A3 G F2 D2 | G8 |: z2 c2 c2 B2 | %33
w: ble, c'est|_ que par|mort, _|ie pour- ray|ter- * * mi-|ner|tout le mal-|
w: |||||||
 A3 G/F/ E2 G2- | G2 F2 G4 | F4 E4 | D4 E3 F |[M:2/4] D4 x4 |1[M:2/2] C3 B, G,4 :|2 E3 F D4 || %40
w: heur _ _ _ et|_ ma dou-|leur en-|sem- * *||* * ble|(sem)- * *|
w: |||||||
 E8 |] %41
w: ble.|
w: |
V:3
 z4 g4- |: g2 g2 fe fg | a4 g2 g2 | g2 f2 e2 d2 | cd ef g3 d | f2 g2 d2 d2 | d2 d2 g4- | g4 z2 g2 | %8
w: Tai-|* r'et souf- * * *|* frir ma|dou- leur ve- he-|men- * * * * *|* * te, qu'en|lan- guis- sant|_ me|
w: Fait|_ que l'ar- * * *|* deur si|gran- de- ment aug-|men- * * * * *|* * te, que|ie ne puis|_ pour|
 a6 g2 | f2 d2 e2 dc | d2 Bc de f2- | fe c2 d4 |1 c4 z2 g2 :|2 fe c2 d4 || c4 z2 c2 | c2 d2 c2 c2 | %16
w: con- vient|en- * du- * *|||rer, fait|(du)- * * *|rer: mais|co- gnois- sant qu'ain-|
w: moy rien|es- * * * *||* * * pe-|rer, *||||
 f6 c2 | f2 a2 g4 | e3 d ef gf |"^#""^#" ed g3 f/e/ f2 |[M:3/2] d8 d4 | d8 d4 | f8 g4 | g4 f4 e4 | %24
w: si ne|puis- en- du-|rer, qu'ain- si _ ne _|puis _ en- * * du-|rer, un|bien y|a en|mon- _ mal-|
w: ||||||||
 d6 c2 B4 | G4 A8 |[M:2/2] c4 z2 G2 | c6 c2 | A3 B c4 | z2 c4 c2 | A2 c4 B2 | c2 e2 e2 d2 |: %32
w: heur me- sem-||ble, c'est|que par|mort, _ _|ie pour-|ray ter- mi-|ner tout le mal-|
w: ||||||||
 c3 B/A/ G2 z B | c2 e2 e2 d2 | e2 dc e2 d2- | dc AB c3 B | G2 d4 c2- |[M:2/4] c2 B2 x4 |1 %38
w: heur _ _ _ et|ma dou- leur en-|sem- * * * *||||
w: ||||||
[M:2/2] c2 e2 e2 d2 :|2 c8- || c8 |] %41
w: ble, tout le mal-|ble,|_|
w: |||
V:4
 c6 c2 |: GA Bc d4 | AB cd e2 e2 | e2 d2 c2 B2 | A4 G4 | z8 | G4 G2 G2 | c6 c2 | F3 G AB c2 | %9
w: Tai- r'et|souf- * * * *|frir _ _ _ _ ma|dou- leur ve- he-|men- te,||qu'en lan- guis-|sant me|con- * * * vient|
w: Fait que|l'ar- * * * *|deur _ _ _ _ si|gran- de- ment aug-|men- te,||que ie ne|puis pour|moy _ _ _ _|
 d2 B2 A4 | G6 D2 | F2 A2 G4 |1 z2 c4 c2 :|2 F2 A2 G4 || C4 z4 | z8 | z8 | z4 G4 | c6 G2 | %19
w: en- * du-||* * rer,|fait que|(du)- * *|rer:|||qu'ain-|si ne|
w: rien es- *||* pe- rer,||||||||
 c2 e2 d4 |[M:3/2] G8 G4 | D8 G4 | F8 C4 | G4 D4 A4 | D4 F4 G4 | E4 D8 |[M:2/2] C8 | z2 C2 F4- | %28
w: puis _ du-|rer, un|bien y|a en|mon _ mal-|heur me sem-||ble,|c'est que|
w: |||||||||
 F2 F2 C4- | C4 z2 C2 | F3 E D2 D2 | C2 c2 c2 B2 |: A3 G/F/ E2 G2 | A2 c2 c2 B2 | A4 G3 F | %35
w: _ par mort,|_ ie|pour- ray ter- mi-|ner tout le mal-|heur _ _ _ et|ma dou- leur en-|sem- * *|
w: |||||||
 D2 F2 C2 c2- | c2 B2 c2 C2 |[M:2/4] G4 x4 |1[M:2/2] C2 c2 c2 B2 :|2 C8- || C8 |] %41
w: |||ble tout le mal-|ble.|_|
w: ||||||

